src/images/icons/mail.svg

<svg width="19" height="19" viewBox="0 0 19 19" fill="none" xmlns="http://www.w3.org/2000/svg">
<path d="M9.16667 18.3333C7.91389 18.3333 6.72986 18.0926 5.61458 17.611C4.49931 17.1301 3.5255 16.4731 2.69317 15.6402C1.86022 14.8078 1.20328 13.834 0.722333 12.7188C0.240778 11.6035 0 10.4194 0 9.16667C0 7.89861 0.240778 6.71092 0.722333 5.60358C1.20328 4.49564 1.86022 3.5255 2.69317 2.69317C3.5255 1.86022 4.49931 1.20297 5.61458 0.721417C6.72986 0.240472 7.91389 0 9.16667 0C10.4347 0 11.6224 0.240472 12.7298 0.721417C13.8377 1.20297 14.8078 1.86022 15.6402 2.69317C16.4731 3.5255 17.1301 4.49564 17.611 5.60358C18.0926 6.71092 18.3333 7.89861 18.3333 9.16667V10.4958C18.3333 11.3972 18.0241 12.1648 17.4057 12.7985C16.7866 13.4328 16.0264 13.75 15.125 13.75C14.575 13.75 14.0632 13.6278 13.5896 13.3833C13.116 13.1389 12.7264 12.8181 12.4208 12.4208C12.0083 12.8333 11.5234 13.1581 10.9661 13.3953C10.4081 13.6318 9.80833 13.75 9.16667 13.75C7.89861 13.75 6.81786 13.303 5.92442 12.4089C5.03036 11.5155 4.58333 10.4347 4.58333 9.16667C4.58333 7.89861 5.03036 6.81756 5.92442 5.9235C6.81786 5.03006 7.89861 4.58333 9.16667 4.58333C10.4347 4.58333 11.5158 5.03006 12.4098 5.9235C13.3033 6.81756 13.75 7.89861 13.75 9.16667V10.4958C13.75 10.9389 13.8875 11.2863 14.1625 11.5381C14.4375 11.7905 14.7583 11.9167 15.125 11.9167C15.4917 11.9167 15.8125 11.7905 16.0875 11.5381C16.3625 11.2863 16.5 10.9389 16.5 10.4958V9.16667C16.5 7.16528 15.778 5.44256 14.3339 3.9985C12.8905 2.55506 11.1681 1.83333 9.16667 1.83333C7.16528 1.83333 5.44256 2.55506 3.9985 3.9985C2.55506 5.44256 1.83333 7.16528 1.83333 9.16667C1.83333 11.1681 2.55506 12.8905 3.9985 14.3339C5.44256 15.778 7.16528 16.5 9.16667 16.5H12.8333C13.0931 16.5 13.3106 16.588 13.486 16.764C13.662 16.9394 13.75 17.1569 13.75 17.4167C13.75 17.6764 13.662 17.8939 13.486 18.0693C13.3106 18.2453 13.0931 18.3333 12.8333 18.3333H9.16667ZM9.16667 11.9167C9.93056 11.9167 10.5799 11.6493 11.1146 11.1146C11.6493 10.5799 11.9167 9.93056 11.9167 9.16667C11.9167 8.40278 11.6493 7.75347 11.1146 7.21875C10.5799 6.68403 9.93056 6.41667 9.16667 6.41667C8.40278 6.41667 7.75347 6.68403 7.21875 7.21875C6.68403 7.75347 6.41667 8.40278 6.41667 9.16667C6.41667 9.93056 6.68403 10.5799 7.21875 11.1146C7.75347 11.6493 8.40278 11.9167 9.16667 11.9167Z" fill="#111111"/>
</svg>

<svg width="19" height="19" fill="none" xmlns="http://www.w3.org/2000/svg"><path d="M9.167 18.333a8.864 8.864 0 0 1-3.552-.722 9.282 9.282 0 0 1-2.922-1.97 9.284 9.284 0 0 1-1.97-2.922A8.865 8.865 0 0 1 0 9.167C0 7.899.24 6.71.722 5.604a9.317 9.317 0 0 1 1.971-2.91A9.295 9.295 0 0 1 5.615.72 8.874 8.874 0 0 1 9.167 0c1.268 0 2.455.24 3.563.721a9.331 9.331 0 0 1 2.91 1.972 9.317 9.317 0 0 1 1.971 2.91 8.836 8.836 0 0 1 .722 3.564v1.329c0 .901-.309 1.669-.927 2.303-.62.634-1.38.951-2.281.951-.55 0-1.062-.122-1.535-.367a3.44 3.44 0 0 1-1.17-.962 4.56 4.56 0 0 1-3.253 1.329c-1.268 0-2.35-.447-3.243-1.341-.894-.894-1.34-1.974-1.34-3.242s.446-2.35 1.34-3.244c.894-.893 1.975-1.34 3.243-1.34 1.268 0 2.349.447 3.243 1.34.893.895 1.34 1.976 1.34 3.244v1.329c0 .443.137.79.412 1.042.275.252.596.379.963.379s.688-.127.962-.379c.276-.252.413-.6.413-1.042v-1.33c0-2-.722-3.723-2.166-5.168-1.444-1.443-3.166-2.165-5.167-2.165-2.002 0-3.724.722-5.168 2.165-1.444 1.445-2.166 3.167-2.166 5.169 0 2.001.722 3.723 2.165 5.167C5.444 15.778 7.165 16.5 9.168 16.5h3.666c.26 0 .478.088.653.264a.885.885 0 0 1 .264.653c0 .26-.088.477-.264.652a.885.885 0 0 1-.653.264H9.167zm0-6.416c.764 0 1.413-.268 1.948-.802a2.652 2.652 0 0 0 .802-1.948c0-.764-.268-1.414-.802-1.948a2.652 2.652 0 0 0-1.948-.802c-.764 0-1.414.267-1.948.802a2.652 2.652 0 0 0-.802 1.948c0 .764.267 1.413.802 1.948a2.652 2.652 0 0 0 1.948.802z" fill="#111"/></svg>
